public/assets/technologies/CSS.svg

<svg xmlns="http://www.w3.org/2000/svg" viewBox="0 0 500 500"><path d="M98.219 55.759 86.73 113.68h300.821a9.41 9.41 0 0 1 9.409 9.41c0 .789-.102 1.551-.288 2.285l-9.725 48.995c-.874 4.486-4.811 7.598-9.223 7.598l-304.471.009-11.471 57.449h300.792c5.193 0 9.41 4.217 9.41 9.418 0 .734-.084 1.449-.242 2.137l-17.369 87.17c-.744 3.734-3.604 6.502-7.087 7.319L222.33 387.073a9.333 9.333 0 0 1-6.279-.139l-109.323-41.845c-4.598-1.745-7.032-6.724-5.685-11.377l5.202-25.906H48.676l-15.233 76.982 169.641 64.637 199.523-65.892L467.96 55.759H98.219Zm-32.165 65.529 15.14-76.322a9.416 9.416 0 0 1 9.316-8.026h388.921c.612 0 1.216.056 1.839.186 5.09 1.013 8.396 5.964 7.384 11.062l-68.659 344.393c-.65 3.214-2.954 6-6.289 7.096l-207.899 68.659a9.38 9.38 0 0 1-6.289-.149L19.427 399.566a9.414 9.414 0 0 1-5.972-10.626l18.186-91.917c.669-4.542 4.588-8.035 9.316-8.035h76.731v.047a9.61 9.61 0 0 1 1.839.176c5.071 1.012 8.359 5.954 7.347 11.025l-6.046 30.122 98.827 37.859 117.33-39.067 14.127-70.897H50.311a10.408 10.408 0 0 1-1.839-.186c-5.09-1.012-8.397-5.972-7.385-11.062l15.177-76.006c.743-4.45 4.616-7.849 9.279-7.849h304.462l6.093-30.652H75.287a10.119 10.119 0 0 1-1.812-.185c-5.09-.995-8.415-5.935-7.421-11.025Z" style="fill:#9c8aff"/></svg>

<?xml version="1.0" encoding="utf-8"?>
<svg viewBox="0 0 500 500" xmlns="http://www.w3.org/2000/svg">
  <path fill-rule="nonzero" d="M 98.219 55.759 L 86.73 113.68 L 387.551 113.68 C 392.743 113.68 396.96 117.888 396.96 123.09 C 396.96 123.879 396.858 124.641 396.672 125.375 L 386.947 174.37 C 386.073 178.856 382.136 181.968 377.724 181.968 L 73.253 181.977 L 61.782 239.426 L 362.574 239.426 C 367.767 239.426 371.984 243.643 371.984 248.844 C 371.984 249.578 371.9 250.293 371.742 250.981 L 354.373 338.151 C 353.629 341.885 350.769 344.653 347.286 345.47 L 222.33 387.073 C 220.204 387.778 217.993 387.676 216.051 386.934 L 106.728 345.089 C 102.13 343.344 99.696 338.365 101.043 333.712 L 106.245 307.806 L 48.676 307.806 L 33.443 384.788 L 203.084 449.425 L 402.607 383.533 L 467.96 55.759 L 98.219 55.759 Z M 66.054 121.288 L 81.194 44.966 C 81.863 40.423 85.782 36.94 90.51 36.94 L 479.431 36.94 C 480.043 36.94 480.647 36.996 481.27 37.126 C 486.36 38.139 489.666 43.09 488.654 48.188 L 419.995 392.581 C 419.345 395.795 417.041 398.581 413.706 399.677 L 205.807 468.336 C 203.828 468.987 201.617 468.987 199.518 468.187 L 19.427 399.566 C 15.102 397.964 12.575 393.467 13.455 388.94 L 31.641 297.023 C 32.31 292.481 36.229 288.988 40.957 288.988 L 117.688 288.988 L 117.688 289.035 C 118.292 289.035 118.904 289.09 119.527 289.211 C 124.598 290.223 127.886 295.165 126.874 300.236 L 120.828 330.358 L 219.655 368.217 L 336.985 329.15 L 351.112 258.253 L 50.311 258.253 C 49.707 258.244 49.094 258.188 48.472 258.067 C 43.382 257.055 40.075 252.095 41.087 247.005 L 56.264 170.999 C 57.007 166.549 60.88 163.15 65.543 163.15 L 370.005 163.15 L 376.098 132.498 L 75.287 132.498 C 74.692 132.489 74.089 132.434 73.475 132.313 C 68.385 131.318 65.06 126.378 66.054 121.288 Z" style="fill: rgb(156, 138, 255);"/>
</svg>
